X:1
T:Mendelssohn, 77.77 D refrain
T:Mendelssohn, 77.77 D refrain
T:Felix Mendelssohn, 1840
T:Public Domain Courtesy of the Cyber Hymnal™
C:Felix Mendelssohn, 1840
Z:Public Domain
Z:Courtesy of the Cyber Hymnal™
%%score ( 1 2 ) ( 3 4 )
L:1/8
Q:1/4=112
M:4/4
K:F
V:1 treble 
V:2 treble 
V:3 bass 
V:4 bass 
V:1
 C2 [CF]2 [CF]3 [CE] x | [CF]2 [FA]2 ([FA]2 [EG]2) | [Fc]2 [Ec]2 c3 z B | [FA]2 [EG]2 [FA]4 | %4
 C2 [CF]2 [CF]3 [CE] x | [A,F]2 [FA]2 (A2 G2) | [Ec]2 [DG]2 [EG]3 [CE] x | [CE]2 [=B,D]2 C4 | %8
 [Cc]2 [Cc]2 [Cc]2 F2 | [GB]2 [FA]2 ([FA]2 [EG]2) | [Cc]2 [Cc]2 [Cc]2 F2 | %11
 [GB]2 [FA]2 ([FA]2 [EG]2) | [Bd]2 [Bd]2 [Bd]2 [Ac]2 | [GB]2 [^FA]2 [GB]4 | %14
 [EG]2 (AB) [Fc]3 [CF] x | [CF]2 [EG]2 [FA]4 | d3 z d [Bd]2 [Ac]2 | [GB]2 [^FA]2 [GB]4 | %18
 [CG]2 (AB) [Fc]3 [CF] x | [CF]2 [EG]2 [CF]4 |] %20
V:2
 C2 x7 | x8 | x4 D2 G2 x | x8 | C2 x7 | x4 F4 | x9 | x4 C4 | x6 F2 | x8 | x6 F2 | x8 | x8 | x8 | %14
 x2 E2 x5 | x8 | B2 B2 x5 | x8 | x2 E2 x5 | x8 |] %20
V:3
 [F,A,]2 [F,A,]2 A,3 z G, | [A,,F,]2 [F,,C]2 [C,C]4 | [A,,C]2 [A,,C]2 [B,,D]2 [B,,D]2 x | %3
 [C,C]2 [C,C]2 [F,,C]4 | [F,A,]2 [F,A,]2 A,3 z G, | [D,F,]2 [C,C]2 [=B,,D]4 | %6
 [A,,A,]2 [=B,,G,]2 G,3 z G, | [F,,F,A,]2 [G,,F,]2 [C,E,]4 | C2 C2 C2 [A,C]2 | %9
 [E,C]2 [F,C]2 [C,C]4 | C2 C2 C2 [A,C]2 | [E,C]2 [F,C]2 [C,C]4 | [B,,D]2 [B,,D]2 [B,,D]2 [B,,D]2 | %13
 [B,,D]2 [D,D]2 [G,D]4 | [B,C]2 [B,C]2 C3 z A, | [C,A,]2 [C,B,]2 [F,,A,]4 | %16
 [B,D]2 [B,D]2 [B,D]2 [A,C]2 x | [B,,G,B,]2 [D,^F,A,]2 B,4 | [E,C]2 C2 C3 z A, | %19
 [C,A,]2 [C,B,]2 [F,A,]4 |] %20
V:4
 x4 F,2 C,2 x | x8 | x9 | x8 | x4 F,2 C,2 x | x8 | x4 C,2 [E,,E,]2 x | x8 | C2 C2 C2 x2 | x8 | x8 | %11
 x8 | x8 | x8 | x4 A,2 F,2 x | x8 | B,,8 x | x4 (G,2 =F,2) | x2 B,2 (B,2 F,2) x | x8 |] %20

